X: 32831
T: Port An Achreidh
R: jig
M: 6/8
K: Dmixolydian
|:AG|F2D EFG|A2B c2A|dcA Bcd|edc A2G|
F2D EFG|A2B c2A|dcA G2E|D3 D3:|
|:dcA Bcd|efg e2f|dcA Bcd|edc A2d|
dcA Bcd|efg e2f|dcA G2E|D3 D3:|

